img/svg/instagram.svg

<svg width="56" height="56" viewBox="0 0 56 56" fill="inherit" xmlns="http://www.w3.org/2000/svg">
    <g>
        <path
            d="M56 26.054C56 27.3501 56 28.6381 56 29.9342C55.96 30.0382 55.888 30.1342 55.88 30.2383C55.8 32.2144 55.3761 34.1345 54.8161 36.0226C53.9123 39.0549 52.5124 41.847 50.6727 44.4232C49.0329 46.7034 47.0811 48.6715 44.8414 50.3596C43.1296 51.6477 41.3059 52.7358 39.3301 53.5998C36.8264 54.6959 34.2348 55.44 31.5151 55.76C30.9072 55.832 30.2992 55.92 29.6833 56C28.5555 56 27.4196 56 26.2918 56C25.5399 55.92 24.78 55.872 24.036 55.744C21.8203 55.376 19.6526 54.8399 17.5649 53.9999C15.0132 52.9678 12.6695 51.5917 10.5178 49.8796C8.70198 48.4315 7.07819 46.7914 5.68636 44.9352C4.00658 42.7111 2.67875 40.2949 1.71087 37.6708C0.710994 34.9586 0.127068 32.1664 0.0150824 29.2942C-0.0489095 27.6941 0.103071 26.086 0.239054 24.4859C0.439029 22.0937 1.10294 19.8135 1.99083 17.5974C3.0067 15.0452 4.39053 12.7011 6.11031 10.5409C7.53413 8.7488 9.14193 7.14869 10.9577 5.7726C12.7175 4.4285 14.6212 3.30843 16.661 2.41237C19.9246 0.97227 23.3401 0.196217 26.8837 0.0282061C29.5953 -0.0998026 32.283 0.212219 34.9147 0.876264C39.2581 1.98034 43.1296 4.02048 46.4892 6.97268C48.5769 8.8048 50.3687 10.9169 51.8245 13.3091C53.9363 16.7733 55.2801 20.4936 55.76 24.5259C55.824 25.0219 55.92 25.5339 56 26.054ZM41.9378 27.9661C41.9378 25.1819 41.9538 22.3897 41.9298 19.6055C41.9218 18.1334 41.3619 16.8613 40.354 15.7733C39.0581 14.3812 37.4263 13.8131 35.5706 13.8051C30.8832 13.7971 26.1958 13.7971 21.5164 13.8051C20.7565 13.8051 19.9886 13.8531 19.2287 13.9251C16.429 14.1892 14.0533 16.8053 14.0533 19.5975C14.0533 25.1259 14.0613 30.6623 14.0453 36.1907C14.0453 37.0947 14.2533 37.9348 14.6852 38.7028C15.8531 40.799 17.6688 41.887 20.0605 41.903C25.2679 41.927 30.4832 41.911 35.6906 41.903C36.1065 41.903 36.5225 41.839 36.9384 41.791C39.6261 41.487 42.0098 38.9108 41.9378 35.9986C41.8898 33.3425 41.9378 30.6543 41.9378 27.9661Z"
            fill="inherit" />
        <path
            d="M16.485 27.9339C16.485 25.1898 16.517 22.4456 16.477 19.7014C16.445 17.8933 18.0208 16.2691 19.8286 16.2531C25.2759 16.2131 30.7312 16.2131 36.1865 16.2531C37.9943 16.2691 39.5381 17.8613 39.5301 19.6454C39.5141 25.1738 39.5061 30.7101 39.5381 36.2385C39.5461 37.8466 38.0743 39.4787 36.3385 39.4867C30.7872 39.5267 25.2359 39.5267 19.6846 39.4867C17.9569 39.4787 16.469 37.8466 16.493 36.2305C16.509 33.4623 16.485 30.7021 16.485 27.9339ZM20.7245 27.9259C20.7165 31.8382 23.9801 34.9984 27.5716 35.1664C32.1871 35.3904 35.1707 31.6302 35.2667 28.23C35.3947 23.6697 31.8671 20.6054 27.9636 20.6374C23.9641 20.6614 20.7405 23.7737 20.7245 27.9259ZM37.4664 20.2854C37.4824 19.3654 36.7385 18.5573 35.8586 18.5333C35.0347 18.5093 34.0668 19.4454 34.0828 20.2374C34.1068 21.1735 34.8347 21.9095 35.7546 21.9255C36.7785 21.9495 37.4504 21.3015 37.4664 20.2854Z"
            fill="inherit" />
        <path
            d="M23.1481 27.9497C22.9561 25.3097 25.3878 23.0217 27.9715 23.0137C30.6512 23.0057 32.9229 25.3577 32.8749 27.9097C32.8189 30.7657 30.6032 32.8217 27.9875 32.8137C25.3638 32.8137 23.0921 30.7657 23.1481 27.9497Z"
            fill="inherit" />
    </g>
</svg>

<svg width="56" height="56" viewBox="0 0 56 56" fill="inherit" xmlns="http://www.w3.org/2000/svg"><path d="M56 26.054v3.88c-.04.104-.112.2-.12.304-.08 1.976-.504 3.897-1.064 5.785-.904 3.032-2.304 5.824-4.143 8.4a27.542 27.542 0 01-5.832 5.937 27.375 27.375 0 01-5.51 3.24c-2.505 1.096-5.096 1.84-7.816 2.16-.608.072-1.216.16-1.832.24h-3.391c-.752-.08-1.512-.128-2.256-.256-2.216-.368-4.383-.904-6.471-1.744a28.304 28.304 0 01-7.047-4.12 27.18 27.18 0 01-4.832-4.945 28.148 28.148 0 01-3.975-7.264c-1-2.712-1.584-5.505-1.696-8.377-.064-1.6.088-3.208.224-4.808.2-2.392.864-4.672 1.752-6.889 1.016-2.552 2.4-4.896 4.12-7.056a27.077 27.077 0 014.847-4.768 27.754 27.754 0 015.703-3.36C19.925.972 23.341.195 26.884.027c2.711-.128 5.399.184 8.03.848A27.64 27.64 0 0146.49 6.973a27.254 27.254 0 015.336 6.336c2.111 3.464 3.455 7.185 3.935 11.217.064.496.16 1.008.24 1.528zm-14.062 1.912c0-2.784.016-5.576-.008-8.36-.008-1.473-.568-2.745-1.576-3.833-1.296-1.392-2.928-1.96-4.783-1.968-4.688-.008-9.375-.008-14.055 0-.76 0-1.527.048-2.287.12-2.8.264-5.176 2.88-5.176 5.672 0 5.529.008 11.065-.008 16.594 0 .904.208 1.744.64 2.512 1.168 2.096 2.984 3.184 5.376 3.2 5.207.024 10.422.008 15.63 0 .415 0 .831-.064 1.247-.112 2.688-.304 5.072-2.88 5-5.792-.048-2.657 0-5.345 0-8.033z"/><path d="M16.485 27.934c0-2.744.032-5.488-.008-8.233-.032-1.808 1.544-3.432 3.352-3.448 5.447-.04 10.902-.04 16.358 0 1.807.016 3.351 1.608 3.343 3.392a1912.03 1912.03 0 00.008 16.594c.008 1.608-1.464 3.24-3.2 3.248-5.55.04-11.102.04-16.653 0-1.728-.008-3.216-1.64-3.192-3.257.016-2.768-.008-5.528-.008-8.296zm4.24-.008c-.009 3.912 3.255 7.072 6.847 7.24 4.615.224 7.599-3.536 7.695-6.936.128-4.56-3.4-7.625-7.303-7.593-4 .024-7.223 3.137-7.24 7.289zm16.741-7.64c.016-.92-.727-1.729-1.607-1.753-.824-.024-1.792.912-1.776 1.704.024.937.752 1.673 1.672 1.689 1.023.024 1.695-.624 1.711-1.64z"/><path d="M23.148 27.95c-.192-2.64 2.24-4.928 4.823-4.936 2.68-.008 4.952 2.344 4.904 4.896-.056 2.856-2.272 4.912-4.887 4.904-2.624 0-4.896-2.048-4.84-4.864z"/></svg>
